!!!OTL: Man scheckt Jokele aus, S. 41f
!!!id: L0034
**kern
*clefG2
*k[]
*A:
{16a
=1
16a
4a
4a
=2
8a
8e
4e}
=3
{8a
8a
8a
8a
=4
4a
4e}
=5
{8a
8a
8a
8b
=6
8a
8e
8e
8e}
=7
{8a
8a
16a
8a
8a
8a
16a
=8
4b
4b}
=9
{8.ee
16dd
8cc#
8b
=10
4a
4a}
==
*-
!!!minrhy: 16
!!!meters: 2/4 ]  ZZ[5
!!!cut: Man scheckt Jokele aus, S. 41f
!!!reg: Luxemburg
!!!trd: Die Luxemburger Volkslieder &auml;lterer Zeit, Luxemburg 1904 posth.
!!!rhy1:   X__X__  X_X_X__   (x2)
!!!rhy2: X_X_X_X_  X__X__
!!!key: L0034  16  A 2/4 ]  ZZ[5
!!!mod: PENTATONIK DUR ?]  AMBITUS[8
!!!kad: -5-5-521
!!!akz: 11_11_11_12_51_
!!!fot: 'a__av_av_b__c__
!!!for: 'a__b__c__d__e__
!!!fok: '\__\__\__/__\__
!! PHRAS[VOLLTAKTIG]
!!!fkt: Kinderlied, Kinderliedterno - erweitert
!!!bem: 2. Weise folgt mit Sign 0035
!! FONTAINE, Ed.:
!! PR[33] 2K[0] 2G[15] 3K[9] 3G[0] 4A[3] 4Ü[0] 5A[0] 6K[0] 6G[0]
!! 7K[0] 7G[0] 8A[0] MEHR[0] SI[27] ABS[33] SR[15] SP[12]
!! ST[10] 2k[9] 2g[27] 3k[3] 3g[0] 4d[0] 4ü[0] 5d[0] 6k[0] 6g[0]
!! 7k[0] 7g[0] 8d[0] mehr[0] si[39] dm[-12] sr[36] sp[3]
!! 1F[6] 2F[77] 3F[17] 4F[0] LF[0] 2P[0] 3P[0] 4P[0] TRI[0] DF[3] AB[35]
!! TF[0] U3K[0] U3[0] U4[0] U4Ü[0] U5[3] U6K[0] U6[3] U7K[0] U7[6]
!! N1[35] N2K[0] N2[21] N3K[0] N3[21] N4[6] N4Ü[0] N5[6] N6K[0] N6[0]
!!!n7k: 0] N7[0] O1[0] O2K[0] O2[0] O3K[0] O3[0] HÖ[0
!!!RNB: symbol: &auml;      = a umlaut  (UTF-8: Å„)
